src/assets/duotone/HierarchySquare3.svg

<svg width="24" height="24" viewBox="0 0 24 24"  xmlns="http://www.w3.org/2000/svg">
<path opacity="0.4" d="M16.1898 21.9998H7.81976C4.17976 21.9998 2.00977 19.8298 2.00977 16.1898V7.81976C2.00977 4.17976 4.17976 2.00977 7.81976 2.00977H16.1898C19.8298 2.00977 21.9998 4.17976 21.9998 7.81976V16.1898C21.9998 19.8298 19.8298 21.9998 16.1898 21.9998Z" />
<path d="M16.41 9.82953C15.8 11.5695 14.16 12.7395 12.32 12.7395C12.31 12.7395 12.31 12.7395 12.3 12.7395L10.24 12.7296C10.24 12.7296 10.24 12.7296 10.23 12.7296C9.46998 12.7296 8.80999 13.2395 8.60999 13.9695C9.49999 14.2495 10.15 15.0795 10.15 16.0595C10.15 17.2695 9.16001 18.2596 7.95001 18.2596C6.74001 18.2596 5.75 17.2695 5.75 16.0595C5.75 15.1695 6.28999 14.3995 7.04999 14.0595V9.71954C6.28999 9.41954 5.75 8.67955 5.75 7.81955C5.75 6.68955 6.66999 5.76953 7.79999 5.76953C8.92999 5.76953 9.84998 6.68955 9.84998 7.81955C9.84998 8.68955 9.30999 9.41954 8.54999 9.71954V11.7395C9.03999 11.4295 9.61998 11.2495 10.23 11.2495H10.24L12.3 11.2596C13.48 11.2996 14.53 10.5395 14.95 9.43954C14.46 9.05954 14.14 8.47955 14.14 7.81955C14.14 6.68955 15.06 5.76953 16.19 5.76953C17.32 5.76953 18.24 6.68955 18.24 7.81955C18.25 8.85955 17.44 9.71953 16.41 9.82953Z" />
</svg>

<?xml version="1.0" encoding="UTF-8"?>
<svg width="24" height="24" viewBox="0 0 24 24" xmlns="http://www.w3.org/2000/svg">
 <path d="m16.19 22h-8.37c-3.64 0-5.81-2.17-5.81-5.81v-8.37c0-3.64 2.17-5.81 5.81-5.81h8.37c3.64 0 5.81 2.17 5.81 5.81v8.37c0 3.64-2.17 5.81-5.81 5.81z" opacity=".4"/>
 <path d="m16.41 9.8295c-0.61 1.74-2.25 2.91-4.09 2.91h-0.02l-2.06-0.0099h-0.01c-0.76002 0-1.42 0.5099-1.62 1.2399 0.89 0.28 1.54 1.11 1.54 2.09 0 1.21-0.98999 2.2001-2.2 2.2001s-2.2-0.9901-2.2-2.2001c0-0.89 0.53999-1.66 1.3-2v-4.34c-0.76-0.3-1.3-1.04-1.3-1.9 0-1.13 0.91999-2.05 2.05-2.05s2.05 0.92002 2.05 2.05c0 0.87-0.53999 1.6-1.3 1.9v2.02c0.49-0.31 1.07-0.49 1.68-0.49h0.01l2.06 0.0101c1.18 0.04 2.23-0.7201 2.65-1.8201-0.49-0.38-0.81-0.95999-0.81-1.62 0-1.13 0.92-2.05 2.05-2.05s2.05 0.92002 2.05 2.05c0.01 1.04-0.8 1.9-1.83 2.01z"/>
</svg>
